svgs/regular/ruler-vertical.svg

<svg xmlns="http://www.w3.org/2000/svg" viewBox="0 0 256 512"><!--! Font Awesome Pro 6.3.0 by @fontawesome - https://fontawesome.com License - https://fontawesome.com/license (Commercial License) Copyright 2023 Fonticons, Inc. --><path d="M192 48c8.8 0 16 7.2 16 16V96H160c-8.8 0-16 7.2-16 16s7.2 16 16 16h48v64H160c-8.8 0-16 7.2-16 16s7.2 16 16 16h48v64H160c-8.8 0-16 7.2-16 16s7.2 16 16 16h48v64H160c-8.8 0-16 7.2-16 16s7.2 16 16 16h48v32c0 8.8-7.2 16-16 16H64c-8.8 0-16-7.2-16-16V64c0-8.8 7.2-16 16-16H192zM64 0C28.7 0 0 28.7 0 64V448c0 35.3 28.7 64 64 64H192c35.3 0 64-28.7 64-64V64c0-35.3-28.7-64-64-64H64z"/></svg>

<svg xmlns="http://www.w3.org/2000/svg" viewBox="0 0 256 512"><!-- Font Awesome Pro 6.0.0-alpha2 by @fontawesome - https://fontawesome.com License - https://fontawesome.com/license (Commercial License) --><path d="M256 464V48C256 21.6 234.4 0 208 0H48C21.6 0 0 21.6 0 48V464C0 490.4 21.6 512 48 512H208C234.4 512 256 490.4 256 464ZM48 464V48H208V96H160C151.2 96 144 103.2 144 112V112C144 120.8 151.2 128 160 128H208V192H160C151.2 192 144 199.2 144 208V208C144 216.8 151.2 224 160 224H208V288H160C151.2 288 144 295.2 144 304V304C144 312.8 151.2 320 160 320H208V384H160C151.2 384 144 391.2 144 400V400C144 408.8 151.2 416 160 416H208V464H48Z"/></svg>
